X: 1782
M: 2/4
L: 1/16
K: D
d2df e2eg | f2a2 a4   | f2ed {g}f2ed | e4 A2A2 |\
d2df e2eg | f2a2 a4   | f2ed    e2dc | d4 D2  :|
|: e2 |\
f2fa e2Ag | f2fa e2Ag | f2ed {g}f2ed | e4 A2e2 |\
f2fa e2Ag | f2fa e2Ag | f2ed    e2dc | d4 D2  :|

